assets/img/SVG/Badger_Roundel.svg

<?xml version="1.0" encoding="UTF-8" standalone="no"?>
<svg width="78px" height="79px" viewBox="0 0 78 79" version="1.1" xmlns="http://www.w3.org/2000/svg" xmlns:xlink="http://www.w3.org/1999/xlink">
    <!-- Generator: Sketch 3.8.3 (29802) - http://www.bohemiancoding.com/sketch -->
    <title>Group</title>
    <desc>Created with Sketch.</desc>
    <defs></defs>
    <g id="Symbols" stroke="none" stroke-width="1" fill="none" fill-rule="evenodd">
        <g id="Circle-Badger">
            <g id="Group">
                <path d="M39.0006933,63.7972174 C25.3506933,63.7972174 14.28596,52.6954783 14.28596,39.0006957 C14.28596,25.3050435 25.3506933,14.2024348 39.0006933,14.2024348 C52.6498267,14.2024348 63.7154267,25.3050435 63.7154267,39.0006957 C63.7154267,52.6954783 52.6498267,63.7972174 39.0006933,63.7972174" id="Fill-1" fill="#FEFEFE"></path>
                <path d="M39.0008667,0.000869565217 C17.4616,0.000869565217 0,17.52 0,39.1321739 C0,60.7426087 17.4616,78.2626087 39.0008667,78.2626087 C60.5401333,78.2626087 78,60.7426087 78,39.1321739 C78,17.52 60.5401333,0.000869565217 39.0008667,0.000869565217 M39.0008667,63.9286957 C25.3508667,63.9286957 14.2861333,52.8269565 14.2861333,39.1321739 C14.2861333,25.4365217 25.3508667,14.333913 39.0008667,14.333913 C52.65,14.333913 63.7156,25.4365217 63.7156,39.1321739 C63.7156,52.8269565 52.65,63.9286957 39.0008667,63.9286957" id="Fill-3" fill="#D20A1E"></path>
                <path d="M31.9761867,12.2710435 L29.4420533,9.63713043 L28.3439867,9.99278261 L29.35192,13.1223478 L27.82572,13.6171304 L25.2976533,5.77104348 L28.3621867,4.778 C29.95512,4.26147826 31.24992,5.04582609 31.6728533,6.35713043 C32.0281867,7.45886957 31.5783867,8.35973913 30.9084533,8.88147826 L33.7450533,11.698 L31.9761867,12.2710435 Z M28.7036533,6.17626087 L27.2649867,6.64321739 L27.93232,8.71452174 L29.3709867,8.24756522 C30.04092,8.03104348 30.3416533,7.458 30.1466533,6.85278261 C29.9516533,6.24669565 29.3735867,5.95886957 28.7036533,6.17626087 L28.7036533,6.17626087 Z" id="Fill-6" fill="#FEFEFE"></path>
                <polygon id="Fill-9" fill="#FEFEFE" points="36.1113133 11.4569565 35.97958 3.20826087 41.39538 3.12130435 41.4179133 4.55782609 37.60718 4.61869565 37.6375133 6.55347826 40.88318 6.50130435 40.9057133 7.93782609 37.66178 7.99 37.69298 9.99434783 41.5037133 9.93347826 41.5262467 11.37"></polygon>
                <path d="M49.4929067,12.5346087 C48.8151733,12.8963478 48.00484,12.9024348 47.1875733,12.652 L44.34924,11.7815652 L46.7507733,3.892 L49.5899733,4.76156522 C50.40724,5.012 51.07544,5.472 51.43684,6.152 C52.0495733,7.30852174 51.63184,8.36765217 51.27044,9.55373913 C50.90904,10.7389565 50.6473067,11.9189565 49.4929067,12.5346087 M50.02764,6.932 C49.8603733,6.5293913 49.55704,6.2546087 49.0275067,6.092 L47.8687733,5.73634783 L46.3027067,10.878087 L47.4623067,11.2337391 C47.9927067,11.3963478 48.3957067,11.338087 48.75884,11.098087 C49.1549067,10.8311304 49.3707067,10.2798261 49.7355733,9.08330435 C50.0995733,7.88591304 50.2061733,7.37373913 50.02764,6.932" id="Fill-10" fill="#FEFEFE"></path>
                <path d="M16.4025333,66.977913 L13.7592,64.7718261 L19.0146667,58.4353043 L21.5514,60.5535652 C22.7838,61.5822609 22.9268,62.8761739 22.0263333,63.9622609 C21.4430667,64.6657391 20.6058667,64.7344348 20.1604,64.6187826 C20.3952667,65.1153043 20.5504,65.9231304 19.8492667,66.7683478 C18.8673333,67.9518261 17.5283333,67.9187826 16.4025333,66.977913 M18.4851333,64.2144348 L17.199,63.1396522 L15.9076667,64.6970435 L17.1929333,65.7709565 C17.7519333,66.237913 18.3135333,66.1031304 18.668,65.6761739 C19.0216,65.2492174 19.0441333,64.6796522 18.4851333,64.2144348 M20.5382667,61.5753043 L19.3318667,60.5683478 L18.122,62.0274783 L19.3284,63.0344348 C19.8518667,63.4718261 20.3874667,63.4222609 20.7488667,62.9866087 C21.1111333,62.550087 21.0608667,62.0126957 20.5382667,61.5753043" id="Fill-12" fill="#FEFEFE"></path>
                <path d="M25.5898067,72.4236522 L25.7622733,70.8949565 L23.1128733,69.6610435 L22.05034,70.7749565 L20.5310733,70.0671304 L26.7060733,63.8497391 L27.8466067,64.3810435 L27.1082067,73.1306087 L25.5898067,72.4236522 Z M26.2918067,66.3393043 L24.0904733,68.621913 L25.9434067,69.4853913 L26.2918067,66.3393043 Z" id="Fill-15" fill="#FEFEFE"></path>
                <path d="M35.28044,74.0343478 C34.6547067,74.4804348 33.8521733,74.59 33.0097733,74.4465217 L30.08564,73.9491304 L31.45844,65.8204348 L34.38344,66.3178261 C35.2249733,66.4604348 35.9469067,66.83 36.39064,67.4578261 C37.14724,68.5256522 36.86644,69.6291304 36.6601733,70.8517391 C36.4539067,72.0726087 36.3447067,73.2752174 35.28044,74.0343478 M35.0941067,68.4117391 C34.8765733,68.0343478 34.54204,67.8004348 33.9951733,67.7082609 L32.8017733,67.5047826 L31.9065067,72.8021739 L33.10164,73.0056522 C33.6467733,73.0986957 34.04024,72.9891304 34.3695733,72.7047826 C34.72664,72.39 34.8705067,71.8152174 35.0785067,70.5821739 C35.2873733,69.3491304 35.3289733,68.8282609 35.0941067,68.4117391" id="Fill-16" fill="#FEFEFE"></path>
                <path d="M45.6306067,73.5163478 C45.0794067,74.238087 44.3592067,74.6189565 43.4414067,74.732 C42.5712733,74.8389565 41.8008067,74.6302609 41.13174,74.1067826 C40.7330733,73.7937391 40.4644067,73.4067826 40.3162067,72.9589565 C40.1688733,72.5093913 40.0388733,71.8372174 39.9296733,70.9406957 C39.81874,70.0441739 39.78234,69.3598261 39.8178733,68.8885217 C39.8516733,68.405913 40.0198067,67.9763478 40.33094,67.5763478 C40.8544067,66.9050435 41.55034,66.5154783 42.42134,66.4085217 C44.27774,66.1789565 45.4208733,67.252 45.8134733,68.6502609 L44.2092733,68.8485217 C43.9172067,68.0789565 43.3868067,67.7363478 42.59554,67.8337391 C42.17174,67.885913 41.8476067,68.078087 41.6292067,68.3963478 C41.3778733,68.8128696 41.3232733,69.1233043 41.5226067,70.7441739 C41.7202067,72.3537391 41.8276733,72.6667826 42.19514,73.005913 C42.47074,73.2641739 42.8312733,73.3598261 43.26634,73.305913 C43.73694,73.2485217 44.0966067,73.052 44.34534,72.7067826 C44.5516067,72.4006957 44.6330733,72.0172174 44.5776067,71.5685217 L44.5394733,71.2589565 L43.0384067,71.4433043 L42.8754733,70.1102609 L45.95734,69.7293913 L46.1038067,70.9250435 C46.2502733,72.1206957 46.11854,72.8493913 45.6306067,73.5163478" id="Fill-18" fill="#FEFEFE"></path>
                <polygon id="Fill-21" fill="#FEFEFE" points="50.6528533 73.0853913 47.44792 65.4914783 52.4338533 63.3732174 52.9919867 64.6958261 49.48372 66.1862609 50.2359867 67.9671304 53.2233867 66.6984348 53.78152 68.0210435 50.79412 69.2897391 51.5732533 71.1349565 55.0797867 69.6453913 55.63792 70.968"></polygon>
                <path d="M63.1845067,65.5838261 L59.85304,64.0873043 L58.96644,64.8281739 L61.0655067,67.356 L59.8313733,68.3864348 L54.5707067,62.049913 L57.04504,59.982087 C58.3311733,58.9064348 59.8253067,59.149913 60.7041067,60.2090435 C61.44424,61.0986087 61.3601733,62.1029565 60.9329067,62.8377391 L64.6127733,64.3907826 L63.1845067,65.5838261 Z M57.8813733,61.1525217 L56.72004,62.1238261 L58.1093067,63.7968696 L59.27064,62.8246957 C59.81144,62.3725217 59.8781733,61.7290435 59.4717067,61.2394783 C59.06524,60.7507826 58.4221733,60.6994783 57.8813733,61.1525217 L57.8813733,61.1525217 Z" id="Fill-22" fill="#FEFEFE"></path>
                <path d="M48.7376067,33.0886957 C51.6288067,31.6582609 54.6404733,29.8026087 54.76094,28.3286957 C55.03134,25.0208696 46.4704067,21.5165217 40.6784733,21.4426087 C36.6770733,21.3921739 31.50654,23.4269565 29.6328067,26.6930435 C29.3494067,26.6008696 29.05214,26.5382609 28.7410067,26.5165217 C26.65754,26.3678261 24.8470733,27.9434783 24.7006067,30.0356522 C24.59574,31.5304348 25.3688067,32.886087 26.5804067,33.5895652 C23.7030733,42.7434783 26.3204067,51.4173913 30.39894,55.6147826 C31.8454067,57.1043478 32.9382733,57.7704348 35.06594,57.7982609 C36.8668733,57.8208696 37.39554,57.4069565 37.23434,56.4043478 C37.1364067,55.7921739 37.0592733,55.0121739 37.01074,54.1704348 C36.99774,53.9478261 37.0844067,53.6817391 37.4284733,53.7121739 C37.9796733,53.7617391 38.54734,53.793913 39.1280067,53.8086957 C39.5136733,53.8165217 39.6488733,53.8843478 39.6116067,54.2921739 C39.5336067,55.1365217 39.4356733,55.8913043 39.33254,56.4313043 C39.1652733,57.3034783 39.5648067,57.806087 41.4628067,57.8295652 C43.8608733,57.86 44.9190733,57.2921739 46.13414,55.98 C47.09354,54.9443478 47.88914,53.6486957 48.5122733,52.153913 C48.7194067,51.6591304 49.2610733,50.8104348 49.5176067,50.5008696 C51.0550733,48.6591304 51.80734,46.8556522 52.0482733,45.1886957 C52.17134,44.3408696 52.53794,44.2513043 53.0848067,44.3104348 C53.78334,44.3869565 54.5018067,44.2869565 55.1474733,43.9130435 C55.8338733,43.5130435 55.8936733,43.22 55.1128067,42.8556522 C50.9900733,40.933913 50.4102733,36.4452174 48.7376067,33.0886957" id="Fill-24" fill="#1D1C1B"></path>
                <path d="M39.5643733,22.345913 C39.5643733,23.4946087 38.63704,24.425913 37.4913067,24.425913 C36.3473067,24.425913 35.41824,23.4946087 35.41824,22.345913 C35.41824,21.1972174 36.3473067,20.2667826 37.4913067,20.2667826 C38.63704,20.2667826 39.5643733,21.1972174 39.5643733,22.345913" id="Fill-26" fill="#1D1C1B"></path>
                <path d="M50.53568,29.1750435 C50.1942133,28.5324348 50.5244133,27.6715652 51.2732133,27.1385217 C51.6216133,26.8898261 51.6268133,26.6941739 51.2541467,26.4506957 C44.5201467,22.0541739 37.2791467,22.5689565 33.3479467,25.188087 C32.89208,25.4941739 32.98568,25.8072174 33.49788,25.662 C38.2264133,24.3193913 46.9676133,25.3967826 48.1792133,27.8341739 C48.9514133,29.388087 36.0346133,28.688087 29.1801467,33.3367826 C28.4001467,33.8654783 28.0448133,34.3846087 27.8082133,35.2654783 C27.0620133,38.055913 26.6720133,40.9602609 26.97448,43.2846087 C27.08368,44.1246087 27.52568,43.9967826 27.7770133,43.4472174 C28.8378133,41.1306957 31.2627467,38.3524348 33.8558133,36.8576522 C36.9862133,35.0524348 39.1251467,34.1567826 42.5935467,33.4489565 C44.7463467,33.0089565 48.0535467,31.6498261 50.6327467,29.988087 C50.9005467,29.8141739 50.9040133,29.6654783 50.6544133,29.3541739 C50.6076133,29.2985217 50.5686133,29.2393913 50.53568,29.1750435" id="Fill-28" fill="#FEFEFE"></path>
                <path d="M9.7058,39.0004348 C9.7058,40.2856522 8.6684,41.3256522 7.38833333,41.3256522 C6.10826667,41.3256522 5.07,40.2856522 5.07,39.0004348 C5.07,37.7169565 6.10826667,36.6752174 7.38833333,36.6752174 C8.6684,36.6752174 9.7058,37.7169565 9.7058,39.0004348" id="Fill-30" fill="#FEFEFE"></path>
                <path d="M73.16036,39.0004348 C73.16036,40.2856522 72.12296,41.3256522 70.8428933,41.3256522 C69.5628267,41.3256522 68.52456,40.2856522 68.52456,39.0004348 C68.52456,37.7169565 69.5628267,36.6752174 70.8428933,36.6752174 C72.12296,36.6752174 73.16036,37.7169565 73.16036,39.0004348" id="Fill-32" fill="#FEFEFE"></path>
            </g>
        </g>
    </g>
</svg>

<svg width="78" height="79" viewBox="0 0 78 79" xmlns="http://www.w3.org/2000/svg"><title>Group</title><g fill="none" fill-rule="evenodd"><path d="M39 63.797c-13.65 0-24.714-11.102-24.714-24.796 0-13.696 11.065-24.799 24.715-24.799 13.649 0 24.714 11.103 24.714 24.799 0 13.694-11.065 24.796-24.714 24.796" fill="#FEFEFE"/><path d="M39 0C17.463 0 0 17.52 0 39.133c0 21.61 17.462 39.13 39 39.13 21.54 0 39-17.52 39-39.13C78 17.52 60.54.001 39 .001m0 63.928c-13.65 0-24.714-11.102-24.714-24.797s11.065-24.798 24.715-24.798c13.649 0 24.715 11.103 24.715 24.798C63.716 52.827 52.65 63.93 39 63.93" fill="#D20A1E"/><path d="M31.976 12.271l-2.534-2.634-1.098.356 1.008 3.13-1.526.494-2.528-7.846 3.064-.993c1.593-.517 2.888.268 3.31 1.58.356 1.1-.094 2.002-.764 2.523l2.837 2.817-1.769.573zm-3.272-6.095l-1.439.467.667 2.072 1.439-.467c.67-.217.97-.79.776-1.395-.195-.606-.773-.894-1.443-.677zm7.407 5.281l-.131-8.249 5.415-.087.023 1.437-3.81.06.03 1.935 3.245-.052.023 1.437-3.244.052.031 2.004 3.81-.06.023 1.436zm13.382 1.078c-.678.361-1.488.367-2.305.117l-2.839-.87 2.402-7.89 2.839.87c.817.25 1.485.71 1.847 1.39.613 1.157.195 2.216-.167 3.402-.361 1.185-.623 2.365-1.777 2.98m.535-5.602c-.168-.403-.471-.677-1-.84l-1.16-.356-1.565 5.142 1.16.356c.53.162.933.104 1.296-.136.396-.267.612-.818.977-2.015.364-1.197.47-1.71.292-2.151M16.403 66.978l-2.644-2.206 5.256-6.337 2.536 2.119c1.233 1.028 1.376 2.322.475 3.408-.583.704-1.42.772-1.866.657.235.496.39 1.304-.31 2.15-.983 1.183-2.322 1.15-3.447.209m2.082-2.764L17.2 63.14l-1.291 1.557 1.285 1.074c.559.467 1.12.332 1.475-.095.354-.427.376-.996-.183-1.462m2.053-2.639l-1.206-1.007-1.21 1.46 1.206 1.006c.524.438 1.06.388 1.42-.047.363-.437.313-.974-.21-1.412m5.051 10.849l.172-1.529-2.65-1.234-1.062 1.114-1.519-.708 6.175-6.217 1.14.531-.738 8.75-1.518-.707zm.702-6.085l-2.202 2.283 1.853.863.349-3.146zm8.988 7.695c-.625.446-1.428.556-2.27.413l-2.924-.498 1.372-8.129 2.925.498c.842.142 1.564.512 2.008 1.14.756 1.068.475 2.171.27 3.394-.207 1.22-.316 2.423-1.38 3.182m-.187-5.622c-.217-.378-.552-.612-1.099-.704l-1.193-.203-.895 5.297 1.195.204c.545.093.938-.017 1.268-.301.357-.315.5-.89.709-2.123.208-1.233.25-1.754.015-2.17m10.536 5.104c-.55.722-1.27 1.103-2.189 1.216-.87.107-1.64-.102-2.31-.625a2.394 2.394 0 0 1-.815-1.148c-.147-.45-.277-1.122-.386-2.018-.111-.897-.148-1.581-.112-2.052.034-.483.202-.913.513-1.313.523-.671 1.22-1.06 2.09-1.167 1.857-.23 3 .843 3.392 2.241l-1.604.199c-.292-.77-.822-1.113-1.613-1.015-.424.052-.748.244-.967.562-.251.417-.306.727-.106 2.348.197 1.61.305 1.923.672 2.262.276.258.636.354 1.071.3.47-.057.83-.254 1.08-.6.206-.305.287-.689.232-1.137l-.039-.31-1.5.184-.164-1.333 3.082-.38.147 1.195c.146 1.196.015 1.924-.473 2.591m5.022-.431l-3.205-7.594 4.986-2.118.558 1.323-3.508 1.49.752 1.781 2.987-1.269.559 1.323-2.988 1.269.78 1.845 3.506-1.49.558 1.323zm12.532-7.501l-3.332-1.497-.887.741 2.1 2.528-1.235 1.03-5.26-6.336 2.474-2.068c1.286-1.076 2.78-.832 3.66.227.74.89.655 1.894.228 2.629l3.68 1.553-1.428 1.193zm-5.304-4.431l-1.161.97 1.39 1.674 1.16-.972c.541-.452.608-1.096.202-1.586-.407-.488-1.05-.54-1.59-.086z" fill="#FEFEFE"/><path d="M48.738 33.089c2.89-1.43 5.902-3.286 6.023-4.76.27-3.308-8.29-6.812-14.083-6.886-4-.05-9.171 1.984-11.045 5.25a3.712 3.712 0 0 0-.892-.176 3.786 3.786 0 0 0-4.04 3.519 3.8 3.8 0 0 0 1.88 3.554c-2.878 9.153-.26 17.827 3.818 22.025 1.446 1.49 2.54 2.155 4.667 2.183 1.8.023 2.33-.391 2.168-1.394a23.213 23.213 0 0 1-.223-2.234c-.013-.222.073-.488.417-.458.552.05 1.12.082 1.7.097.386.008.52.075.484.483a23.88 23.88 0 0 1-.28 2.14c-.167.871.233 1.374 2.13 1.398 2.399.03 3.457-.538 4.672-1.85.96-1.036 1.755-2.331 2.378-3.826.207-.495.75-1.344 1.006-1.653 1.537-1.842 2.29-3.645 2.53-5.312.123-.848.49-.938 1.037-.879.698.077 1.417-.023 2.062-.397.687-.4.747-.693-.034-1.057-4.123-1.922-4.703-6.41-6.375-9.767" fill="#1D1C1B"/><path d="M39.564 22.346c0 1.149-.927 2.08-2.073 2.08a2.077 2.077 0 0 1-2.073-2.08c0-1.149.93-2.08 2.073-2.08 1.146 0 2.073.931 2.073 2.08" fill="#1D1C1B"/><path d="M50.536 29.175c-.342-.643-.012-1.503.737-2.036.349-.25.354-.445-.019-.688-6.734-4.397-13.975-3.882-17.906-1.263-.456.306-.362.62.15.474 4.728-1.343 13.47-.265 14.681 2.172.772 1.554-12.144.854-18.999 5.503-.78.528-1.135 1.048-1.372 1.928-.746 2.79-1.136 5.695-.834 8.02.11.84.552.712.803.162 1.06-2.316 3.486-5.095 6.079-6.59 3.13-1.805 5.27-2.7 8.738-3.408 2.152-.44 5.46-1.8 8.039-3.46.268-.175.271-.324.021-.635a.944.944 0 0 1-.118-.179M9.706 39a2.32 2.32 0 0 1-2.318 2.326A2.321 2.321 0 0 1 5.07 39a2.322 2.322 0 0 1 2.318-2.325A2.322 2.322 0 0 1 9.706 39m63.454 0a2.32 2.32 0 0 1-2.317 2.326A2.321 2.321 0 0 1 68.525 39a2.322 2.322 0 0 1 2.318-2.325A2.322 2.322 0 0 1 73.16 39" fill="#FEFEFE"/></g></svg>
